X:278
T:Reel 278
M:4/4
K:Dmaj
L:1/8
AG|FGAD BDAD|FGAB ABcd|B>E (3GFE BEGF|EDCD EFGE|FGAF ADAD|FGAB A2GF|EFGB ABcd|edce d2|A2|d2Ac d2cd|e2dc dBAF|G2BG E2EG|BGEF GABc|d2Ad d2cd|efde d2AF|G2BG ABAF|GABG EGA|
